sources/design/Outline/euro.svg

<svg:svg xmlns:cc="http://creativecommons.org/ns#" xmlns:dc="http://purl.org/dc/elements/1.1/" xmlns:inkscape="http://www.inkscape.org/namespaces/inkscape" xmlns:rdf="http://www.w3.org/1999/02/22-rdf-syntax-ns#" xmlns:sodipodi="http://sodipodi.sourceforge.net/DTD/sodipodi-0.dtd" xmlns:svg="http://www.w3.org/2000/svg" xml:space="preserve" width="1000" height="1000" version="1.1" style="clip-rule:evenodd;fill-rule:evenodd;image-rendering:optimizeQuality;shape-rendering:geometricPrecision;text-rendering:geometricPrecision" viewBox="0 0 1000 1000" id="svg10" sodipodi:docname="euro.svg" inkscape:version="1.0.2 (e86c870879, 2021-01-15)"><svg:metadata id="metadata14"><rdf:RDF><cc:Work rdf:about=""><dc:format>image/svg+xml</dc:format><dc:type rdf:resource="http://purl.org/dc/dcmitype/StillImage" /><dc:title /></cc:Work></rdf:RDF></svg:metadata><sodipodi:namedview pagecolor="#ffffff" bordercolor="#666666" borderopacity="1" objecttolerance="10" gridtolerance="10" guidetolerance="10" inkscape:pageopacity="0" inkscape:pageshadow="2" inkscape:window-width="1920" inkscape:window-height="1127" id="namedview12" showgrid="false" inkscape:zoom="1.2005384" inkscape:cx="273.12325" inkscape:cy="452.88656" inkscape:window-x="0" inkscape:window-y="0" inkscape:window-maximized="1" inkscape:current-layer="g910" showguides="true" inkscape:guide-bbox="true" inkscape:document-rotation="0" inkscape:pagecheckerboard="0"><sodipodi:guide position="0,1000" orientation="0,1" id="guide16" inkscape:label="" inkscape:locked="true" inkscape:color="rgb(0,0,255)" /><sodipodi:guide position="1763.3122,2036.1693" orientation="1000,0" id="guide18" /><sodipodi:guide position="0,200" orientation="0,1" id="guide20" inkscape:label="base" inkscape:locked="true" inkscape:color="rgb(0,0,255)" /><inkscape:grid type="xygrid" id="grid24" originx="-473.37552" originy="-489.69235" /><sodipodi:guide position="0,0" orientation="0,1" id="guide34" inkscape:label="bottom" inkscape:locked="true" inkscape:color="rgb(0,0,255)" /><sodipodi:guide position="225.05109,1693.3186" orientation="0,1" id="guide44" inkscape:label="" inkscape:locked="false" inkscape:color="rgb(0,0,255)" /><sodipodi:guide position="0,900" orientation="0,1" id="guide46" inkscape:label="" inkscape:locked="true" inkscape:color="rgb(0,0,255)" /><sodipodi:guide position="466.12255,839.07742" orientation="1,0" id="guide841" inkscape:label="width" />    </sodipodi:namedview>
 <svg:defs id="defs4"><inkscape:path-effect effect="fillet_chamfer" id="path-effect885" is_visible="true" lpeversion="1" satellites_param="F,0,0,1,0,13.698303,0,1 @ F,0,0,1,0,11.791506,0,1 @ F,0,0,1,0,12.753422,0,1 @ F,0,0,1,0,10.073858,0,1" unit="px" method="auto" mode="F" radius="0" chamfer_steps="1" flexible="false" use_knot_distance="true" apply_no_radius="true" apply_with_radius="true" only_selected="true" hide_knots="false" /><inkscape:path-effect effect="spiro" id="path-effect883" is_visible="true" lpeversion="1" /><inkscape:path-effect effect="fillet_chamfer" id="path-effect916" is_visible="true" lpeversion="1" satellites_param="F,0,1,1,0,15.488915,0,1 @ F,0,0,1,0,34.556112,0,1 @ F,0,0,1,0,34.556112,0,1 @ F,0,1,1,0,15.488915,0,1" unit="px" method="auto" mode="F" radius="0" chamfer_steps="1" flexible="false" use_knot_distance="true" apply_no_radius="true" apply_with_radius="true" only_selected="true" hide_knots="false" /><inkscape:path-effect effect="fillet_chamfer" id="path-effect914" is_visible="true" lpeversion="1" satellites_param="F,0,0,1,0,15.075704,0,1 @ F,0,0,1,0,9.2774378,0,1 @ F,0,0,1,0,11.131126,0,1 @ F,0,0,1,0,14.928543,0,1" unit="px" method="auto" mode="F" radius="0" chamfer_steps="1" flexible="false" use_knot_distance="true" apply_no_radius="true" apply_with_radius="true" only_selected="true" hide_knots="false" /><inkscape:path-effect effect="fillet_chamfer" id="path-effect912" is_visible="true" lpeversion="1" satellites_param="F,0,0,1,0,12.165058,0,1 @ F,0,0,1,0,12.854823,0,1 @ F,0,0,1,0,0,0,1 @ F,0,0,1,0,0,0,1 @ F,0,0,1,0,0,0,1 @ F,0,0,1,0,0,0,1 @ F,0,0,1,0,0,0,1 @ F,0,0,1,0,13.647449,0,1 @ F,0,0,1,0,15.096329,0,1 @ F,0,0,1,0,0,0,1 @ F,0,0,1,0,0,0,1 @ F,0,0,1,0,0,0,1 @ F,0,0,1,0,0,0,1 @ F,0,0,1,0,0,0,1 @ F,0,0,1,0,0,0,1" unit="px" method="auto" mode="F" radius="0" chamfer_steps="1" flexible="false" use_knot_distance="true" apply_no_radius="true" apply_with_radius="true" only_selected="true" hide_knots="false" /><inkscape:path-effect effect="spiro" id="path-effect904" is_visible="true" lpeversion="1" /><inkscape:path-effect effect="spiro" id="path-effect857" is_visible="true" lpeversion="1" /><inkscape:path-effect effect="spiro" id="path-effect853" is_visible="true" lpeversion="1" /><inkscape:path-effect effect="fillet_chamfer" id="path-effect850" is_visible="true" lpeversion="1" satellites_param="F,0,0,1,0,0,0,1 @ F,0,0,1,0,0,0,1 @ F,0,0,1,0,0,0,1 @ F,0,0,1,0,0,0,1 @ F,0,0,1,0,0,0,1 @ F,0,0,1,0,0,0,1 @ F,0,0,1,0,0,0,1 @ F,0,0,1,0,0,0,1 @ F,0,0,1,0,0,0,1 @ F,0,1,1,0,31.843498,0,1 @ F,0,1,1,0,31.843498,0,1 @ F,0,0,1,0,0,0,1 @ F,0,1,1,0,31.843498,0,1 @ F,0,1,1,0,31.843498,0,1 @ F,0,0,1,0,0,0,1 @ F,0,0,1,0,0,0,1 @ F,0,0,1,0,0,0,1 @ F,0,0,1,0,0,0,1 @ F,0,0,1,0,0,0,1 | F,0,1,1,0,31.843498,0,1 @ F,0,1,1,0,31.843498,0,1 @ F,0,1,1,0,31.843498,0,1 @ F,0,1,1,0,31.843498,0,1 | F,0,1,1,0,31.843498,0,1 @ F,0,1,1,0,31.843498,0,1 @ F,0,1,1,0,31.843498,0,1 @ F,0,1,1,0,31.843498,0,1" unit="px" method="auto" mode="F" radius="0" chamfer_steps="1" flexible="false" use_knot_distance="true" apply_no_radius="true" apply_with_radius="true" only_selected="true" hide_knots="false" /><inkscape:path-effect effect="spiro" id="path-effect872" is_visible="true" lpeversion="1" /><inkscape:path-effect effect="spiro" id="path-effect868" is_visible="true" lpeversion="1" /><inkscape:path-effect effect="spiro" id="path-effect849" is_visible="true" lpeversion="1" /><inkscape:path-effect effect="spiro" id="path-effect851" is_visible="true" lpeversion="1" />
  <svg:style type="text/css" id="style2">
   
    .fil0 {fill:#EF7F1A;fill-rule:nonzero}
   
  </svg:style>
 <inkscape:path-effect effect="spiro" id="path-effect1214" is_visible="true" lpeversion="1" /><inkscape:path-effect effect="spiro" id="path-effect1195" is_visible="true" lpeversion="1" /><inkscape:path-effect effect="spiro" id="path-effect992" is_visible="true" lpeversion="1" /><inkscape:path-effect effect="spiro" id="path-effect1060" is_visible="true" lpeversion="1" /><inkscape:path-effect effect="spiro" id="path-effect1047" is_visible="true" lpeversion="1" /><inkscape:path-effect effect="spiro" id="path-effect1085" is_visible="true" lpeversion="1" /><inkscape:path-effect effect="spiro" id="path-effect1286" is_visible="true" lpeversion="1" /></svg:defs>
 
<svg:g id="g910" transform="translate(14)"><svg:g id="path851"><svg:path style="color:#000000;clip-rule:nonzero;fill:#1a5fb4;fill-rule:nonzero;stroke-linecap:round;stroke-linejoin:round;-inkscape-stroke:none;paint-order:fill stroke markers;shape-rendering:auto" d="M 355.48047,67.068359 C 303.65755,67.787042 252.13317,83.385011 208.87695000000002,113.10938 C 171.72600000000003,138.63838 142.20568000000003,172.92659 120.10156000000002,210.57031 C 75.64015700000002,286.28891 61.22656200000002,374.1938 62.45703100000002,458.38281 C 63.469174000000024,527.63387 74.95498900000003,599.1442 107.03711000000001,663.8359399999999 C 139.3091,728.91055 193.22782,785.7660599999999 263.80859,812.3691399999999 C 325.59443999999996,835.65726 395.36123,833.1259899999999 455.36523,806.0956999999999 C 477.95164,795.9210999999998 486.08491,765.3913199999998 473.5,745.2636699999998 L 422.10937,663.0742199999999 C 409.063,642.2085199999999 382.03191000000004,636.9756299999999 362.15234,646.9765599999998 C 340.15402,658.0433899999998 312.92231999999996,660.4708299999999 289.66211,653.2597699999999 C 272.46805,647.9293099999999 256.12593,637.3751699999999 242.86327999999997,623.5996099999999 C 229.53752999999998,609.7585099999999 218.93576999999996,592.4553599999999 211.40233999999998,573.5488299999998 C 196.28652999999997,535.6129099999998 193.44709999999998,491.3759299999998 195.52733999999998,446.0546899999998 C 197.38550999999998,405.5716499999998 202.94769999999997,366.4745599999998 217.34179999999998,332.4609399999998 C 231.569,298.84169999999983 255.72587999999996,269.6445299999998 285.55469,255.24022999999983 C 310.76377,243.06679999999983 341.92434,241.16805999999983 368.68944999999997,250.00390999999982 C 388.68451,256.60477999999983 410.74240999999995,249.56658999999982 421.63671999999997,229.39647999999983 L 469.6543,140.49414 C 480.70931,120.0265 470.15669,90.053964 447.36328,82.007812 C 417.77473,71.56295 386.57422,66.63715 355.48047,67.068359 M 356.41602,127.33789 C 373.07468,127.06273 389.71576,128.76008 405.82617,132.41211 L 374.96484,189.55273 C 336.56154,180.04546 295.43899,183.83711 259.46484,201.20898 C 213.10177,223.59766 180.83356999999998,264.77699 162.08594,309.07812 C 143.5052,352.98488000000003 137.61316,399.26433000000003 135.59179999999998,443.30273 C 133.32487999999998,492.69097 135.68579999999997,545.6188 155.66405999999998,595.7578100000001 C 165.67764999999997,620.8887500000001 180.08804999999998,644.9061 199.64061999999998,665.2148400000001 C 219.25629999999998,685.5891200000001 243.80996,701.8616700000001 271.89453,710.5683600000001 C 306.84038,721.4021700000001 344.46828999999997,719.2426600000001 377.90819999999997,705.5585900000001 L 411.18163999999996,758.7714800000001 C 370.43028,771.8022900000001 324.72776,771.2097100000001 284.97069999999997,756.2246100000001 C 231.64232999999996,736.1242500000001 187.34922999999998,690.7347700000001 160.78905999999995,637.1777300000001 C 134.03902999999994,583.2378300000001 123.37418999999994,520.6592800000001 122.45116999999995,457.5058600000001 C 121.33096999999995,380.8615400000001 134.85426999999996,303.9382900000001 171.83983999999995,240.9511700000001 C 190.16286999999994,209.7467200000001 214.20671999999996,182.2484400000001 242.85741999999993,162.5605500000001 C 275.6464199999999,140.0289400000001 316.0480999999999,128.0046800000001 356.41601999999995,127.3378900000001 L 356.41602,127.33789" id="path3920" /></svg:g><svg:g id="path855"><svg:path style="color:#000000;clip-rule:nonzero;fill:#1a5fb4;fill-rule:nonzero;stroke-linecap:round;stroke-linejoin:round;-inkscape-stroke:none;paint-order:fill stroke markers;shape-rendering:auto" d="M 312.19727,298.62305 L 4.4257812,310.42383 C -19.271011,311.33245 -38.85237,330.66074000000003 -40.068358999999994,354.34375 L -42.25976599999999,397.02344 C -43.526560999999994,421.69596 -23.62483899999999,443.3041 1.0683594000000056,444.06836 L 306.23242000000005,453.51367 C 327.07556000000005,454.15877 345.35748000000007,437.86192 347.10352000000006,417.08203 L 353.4316400000001,341.7793 C 355.3926600000001,318.44086 335.6007400000001,297.72567 312.19727000000006,298.62305 L 312.19727,298.62305 M 291.73437,359.45117 L 288.91992,392.94921999999997 L 18.458983999999987,384.57811999999996 L 19.21289099999999,369.90234 L 291.73437,359.45117" id="path3926" /></svg:g><svg:g id="path855-8"><svg:path style="color:#000000;fill:#1a5fb4;stroke-linecap:round;stroke-linejoin:round;-inkscape-stroke:none;paint-order:fill stroke markers;fill-rule:nonzero" d="M 310.88477,427.68555 L -0.1171875,439.60937 C -21.067277,440.41268 -38.436675,457.55819 -39.511719,478.49609 L -42.021484,527.3984399999999 C -43.249507,551.31582 -23.937422,572.28453 0.0,573.02539 L 304.02734,582.43555 C 326.27927999999997,583.12424 345.75899,565.7605900000001 347.62305,543.57617 L 353.60352,472.39453000000003 C 355.63672,448.19705000000005 335.14968,426.75514000000004 310.88477,427.68555000000003 L 310.88477,427.68555 M 292.04297,488.45117 L 289.22852,521.94922 L 18.765625,513.57812 L 19.519531,498.90234000000004 L 292.04297,488.45117" id="path3932" /></svg:g></svg:g></svg:svg>

<svg:svg xmlns:cc="http://creativecommons.org/ns#" xmlns:dc="http://purl.org/dc/elements/1.1/" xmlns:inkscape="http://www.inkscape.org/namespaces/inkscape" xmlns:rdf="http://www.w3.org/1999/02/22-rdf-syntax-ns#" xmlns:sodipodi="http://sodipodi.sourceforge.net/DTD/sodipodi-0.dtd" xmlns:svg="http://www.w3.org/2000/svg" xml:space="preserve" width="1000" height="1000" version="1.1" style="clip-rule:evenodd;fill-rule:evenodd;image-rendering:optimizeQuality;shape-rendering:geometricPrecision;text-rendering:geometricPrecision" viewBox="0 0 1000 1000" id="svg10" sodipodi:docname="euro.svg" inkscape:version="1.0.2 (e86c870879, 2021-01-15)"><svg:metadata id="metadata14"><rdf:RDF><cc:Work rdf:about=""><dc:format>image/svg+xml</dc:format><dc:type rdf:resource="http://purl.org/dc/dcmitype/StillImage" /><dc:title /></cc:Work></rdf:RDF></svg:metadata><sodipodi:namedview pagecolor="#ffffff" bordercolor="#666666" borderopacity="1" objecttolerance="10" gridtolerance="10" guidetolerance="10" inkscape:pageopacity="0" inkscape:pageshadow="2" inkscape:window-width="1920" inkscape:window-height="1127" id="namedview12" showgrid="false" inkscape:zoom="1.2005384" inkscape:cx="273.12325" inkscape:cy="452.88656" inkscape:window-x="0" inkscape:window-y="0" inkscape:window-maximized="1" inkscape:current-layer="g910" showguides="true" inkscape:guide-bbox="true" inkscape:document-rotation="0" inkscape:pagecheckerboard="0"><sodipodi:guide position="0,1000" orientation="0,1" id="guide16" inkscape:label="" inkscape:locked="true" inkscape:color="rgb(0,0,255)" /><sodipodi:guide position="1763.3122,2036.1693" orientation="1000,0" id="guide18" /><sodipodi:guide position="0,200" orientation="0,1" id="guide20" inkscape:label="base" inkscape:locked="true" inkscape:color="rgb(0,0,255)" /><inkscape:grid type="xygrid" id="grid24" originx="-473.37552" originy="-489.69235" /><sodipodi:guide position="0,0" orientation="0,1" id="guide34" inkscape:label="bottom" inkscape:locked="true" inkscape:color="rgb(0,0,255)" /><sodipodi:guide position="225.05109,1693.3186" orientation="0,1" id="guide44" inkscape:label="" inkscape:locked="false" inkscape:color="rgb(0,0,255)" /><sodipodi:guide position="0,900" orientation="0,1" id="guide46" inkscape:label="" inkscape:locked="true" inkscape:color="rgb(0,0,255)" /><sodipodi:guide position="466.12255,839.07742" orientation="1,0" id="guide841" inkscape:label="width" />    </sodipodi:namedview>
 <svg:defs id="defs4"><inkscape:path-effect effect="fillet_chamfer" id="path-effect885" is_visible="true" lpeversion="1" satellites_param="F,0,0,1,0,13.698303,0,1 @ F,0,0,1,0,11.791506,0,1 @ F,0,0,1,0,12.753422,0,1 @ F,0,0,1,0,10.073858,0,1" unit="px" method="auto" mode="F" radius="0" chamfer_steps="1" flexible="false" use_knot_distance="true" apply_no_radius="true" apply_with_radius="true" only_selected="true" hide_knots="false" /><inkscape:path-effect effect="spiro" id="path-effect883" is_visible="true" lpeversion="1" /><inkscape:path-effect effect="fillet_chamfer" id="path-effect916" is_visible="true" lpeversion="1" satellites_param="F,0,1,1,0,15.488915,0,1 @ F,0,0,1,0,34.556112,0,1 @ F,0,0,1,0,34.556112,0,1 @ F,0,1,1,0,15.488915,0,1" unit="px" method="auto" mode="F" radius="0" chamfer_steps="1" flexible="false" use_knot_distance="true" apply_no_radius="true" apply_with_radius="true" only_selected="true" hide_knots="false" /><inkscape:path-effect effect="fillet_chamfer" id="path-effect914" is_visible="true" lpeversion="1" satellites_param="F,0,0,1,0,15.075704,0,1 @ F,0,0,1,0,9.2774378,0,1 @ F,0,0,1,0,11.131126,0,1 @ F,0,0,1,0,14.928543,0,1" unit="px" method="auto" mode="F" radius="0" chamfer_steps="1" flexible="false" use_knot_distance="true" apply_no_radius="true" apply_with_radius="true" only_selected="true" hide_knots="false" /><inkscape:path-effect effect="fillet_chamfer" id="path-effect912" is_visible="true" lpeversion="1" satellites_param="F,0,0,1,0,12.165058,0,1 @ F,0,0,1,0,12.854823,0,1 @ F,0,0,1,0,0,0,1 @ F,0,0,1,0,0,0,1 @ F,0,0,1,0,0,0,1 @ F,0,0,1,0,0,0,1 @ F,0,0,1,0,0,0,1 @ F,0,0,1,0,13.647449,0,1 @ F,0,0,1,0,15.096329,0,1 @ F,0,0,1,0,0,0,1 @ F,0,0,1,0,0,0,1 @ F,0,0,1,0,0,0,1 @ F,0,0,1,0,0,0,1 @ F,0,0,1,0,0,0,1 @ F,0,0,1,0,0,0,1" unit="px" method="auto" mode="F" radius="0" chamfer_steps="1" flexible="false" use_knot_distance="true" apply_no_radius="true" apply_with_radius="true" only_selected="true" hide_knots="false" /><inkscape:path-effect effect="spiro" id="path-effect904" is_visible="true" lpeversion="1" /><inkscape:path-effect effect="spiro" id="path-effect857" is_visible="true" lpeversion="1" /><inkscape:path-effect effect="spiro" id="path-effect853" is_visible="true" lpeversion="1" /><inkscape:path-effect effect="fillet_chamfer" id="path-effect850" is_visible="true" lpeversion="1" satellites_param="F,0,0,1,0,0,0,1 @ F,0,0,1,0,0,0,1 @ F,0,0,1,0,0,0,1 @ F,0,0,1,0,0,0,1 @ F,0,0,1,0,0,0,1 @ F,0,0,1,0,0,0,1 @ F,0,0,1,0,0,0,1 @ F,0,0,1,0,0,0,1 @ F,0,0,1,0,0,0,1 @ F,0,1,1,0,31.843498,0,1 @ F,0,1,1,0,31.843498,0,1 @ F,0,0,1,0,0,0,1 @ F,0,1,1,0,31.843498,0,1 @ F,0,1,1,0,31.843498,0,1 @ F,0,0,1,0,0,0,1 @ F,0,0,1,0,0,0,1 @ F,0,0,1,0,0,0,1 @ F,0,0,1,0,0,0,1 @ F,0,0,1,0,0,0,1 | F,0,1,1,0,31.843498,0,1 @ F,0,1,1,0,31.843498,0,1 @ F,0,1,1,0,31.843498,0,1 @ F,0,1,1,0,31.843498,0,1 | F,0,1,1,0,31.843498,0,1 @ F,0,1,1,0,31.843498,0,1 @ F,0,1,1,0,31.843498,0,1 @ F,0,1,1,0,31.843498,0,1" unit="px" method="auto" mode="F" radius="0" chamfer_steps="1" flexible="false" use_knot_distance="true" apply_no_radius="true" apply_with_radius="true" only_selected="true" hide_knots="false" /><inkscape:path-effect effect="spiro" id="path-effect872" is_visible="true" lpeversion="1" /><inkscape:path-effect effect="spiro" id="path-effect868" is_visible="true" lpeversion="1" /><inkscape:path-effect effect="spiro" id="path-effect849" is_visible="true" lpeversion="1" /><inkscape:path-effect effect="spiro" id="path-effect851" is_visible="true" lpeversion="1" />
  <svg:style type="text/css" id="style2">
   
    .fil0 {fill:#EF7F1A;fill-rule:nonzero}
   
  </svg:style>
 <inkscape:path-effect effect="spiro" id="path-effect1214" is_visible="true" lpeversion="1" /><inkscape:path-effect effect="spiro" id="path-effect1195" is_visible="true" lpeversion="1" /><inkscape:path-effect effect="spiro" id="path-effect992" is_visible="true" lpeversion="1" /><inkscape:path-effect effect="spiro" id="path-effect1060" is_visible="true" lpeversion="1" /><inkscape:path-effect effect="spiro" id="path-effect1047" is_visible="true" lpeversion="1" /><inkscape:path-effect effect="spiro" id="path-effect1085" is_visible="true" lpeversion="1" /><inkscape:path-effect effect="spiro" id="path-effect1286" is_visible="true" lpeversion="1" /></svg:defs>
 
<svg:g id="g910" transform="translate(14)"><svg:g id="path851"><svg:path style="color:#000000;clip-rule:nonzero;fill:#1a5fb4;fill-rule:nonzero;stroke-linecap:round;stroke-linejoin:round;-inkscape-stroke:none;shape-rendering:auto" d="m 355.48047,67.068359 c -51.82292,0.718683 -103.3473,16.316652 -146.60352,46.041021 -37.15095,25.529 -66.67127,59.81721 -88.77539,97.46093 -44.461403,75.7186 -58.874998,163.62349 -57.644529,247.8125 1.012143,69.25106 12.497958,140.76139 44.580079,205.45313 32.27199,65.07461 86.19071,121.93012 156.77148,148.5332 61.78585,23.28812 131.55264,20.75685 191.55664,-6.27344 22.58641,-10.1746 30.71968,-40.70438 18.13477,-60.83203 l -51.39063,-82.18945 c -13.04637,-20.8657 -40.07746,-26.09859 -59.95703,-16.09766 -21.99832,11.06683 -49.23002,13.49427 -72.49023,6.28321 -17.19406,-5.33046 -33.53618,-15.8846 -46.79883,-29.66016 -13.32575,-13.8411 -23.92751,-31.14425 -31.46094,-50.05078 -15.11581,-37.93592 -17.95524,-82.1729 -15.875,-127.49414 1.85817,-40.48304 7.42036,-79.58013 21.81446,-113.59375 14.2272,-33.61924 38.38408,-62.81641 68.21289,-77.22071 25.20908,-12.17343 56.36965,-14.07217 83.13476,-5.23632 19.99506,6.60087 42.05296,-0.43732 52.94727,-20.60743 L 469.6543,140.49414 C 480.70931,120.0265 470.15669,90.053964 447.36328,82.007812 417.77473,71.56295 386.57422,66.63715 355.48047,67.068359 Z m 0.93555,60.269531 c 16.65866,-0.27516 33.29974,1.42219 49.41015,5.07422 l -30.86133,57.14062 c -38.4033,-9.50727 -79.52585,-5.71562 -115.5,11.65625 -46.36307,22.38868 -78.63127,63.56801 -97.3789,107.86914 -18.58074,43.90676 -24.47278,90.18621 -26.49414,134.22461 -2.26692,49.38824 0.094,102.31607 20.07226,152.45508 10.01359,25.13094 24.42399,49.14829 43.97656,69.45703 19.61568,20.37428 44.16934,36.64683 72.25391,45.35352 34.94585,10.83381 72.57376,8.6743 106.01367,-5.00977 l 33.27344,53.21289 c -40.75136,13.03081 -86.45388,12.43823 -126.21094,-2.54687 -53.32837,-20.10036 -97.62147,-65.48984 -124.18164,-119.04688 -26.75003,-53.9399 -37.41487,-116.51845 -38.33789,-179.67187 -1.1202,-76.64432 12.4031,-153.56757 49.38867,-216.55469 18.32303,-31.20445 42.36688,-58.70273 71.01758,-78.39062 32.789,-22.53161 73.19068,-34.55587 113.5586,-35.22266 z" id="path3910" /></svg:g><svg:g id="path855"><svg:path style="color:#000000;clip-rule:nonzero;fill:#1a5fb4;fill-rule:nonzero;stroke-linecap:round;stroke-linejoin:round;-inkscape-stroke:none;shape-rendering:auto" d="M 312.19727,298.62305 4.4257812,310.42383 c -23.6967922,0.90862 -43.2781512,20.23691 -44.4941402,43.91992 l -2.191407,42.67969 c -1.266795,24.67252 18.634927,46.28066 43.3281254,47.04492 l 305.1640606,9.44531 c 20.84314,0.6451 39.12506,-15.65175 40.8711,-36.43164 l 6.32812,-75.30273 c 1.96102,-23.33844 -17.8309,-44.05363 -41.23437,-43.15625 z m -20.4629,60.82812 -2.81445,33.49805 -270.460936,-8.3711 0.753907,-14.67578 z" id="path3916" /></svg:g><svg:g id="path855-8"><svg:path style="color:#000000;fill:#1a5fb4;stroke-linecap:round;stroke-linejoin:round;-inkscape-stroke:none;fill-rule:nonzero" d="M 310.88477,427.68555 -0.1171875,439.60937 c -20.9500895,0.80331 -38.3194875,17.94882 -39.3945315,38.88672 l -2.509765,48.90235 C -43.249507,551.31582 -23.937422,572.28453 0,573.02539 l 304.02734,9.41016 c 22.25194,0.68869 41.73165,-16.67496 43.59571,-38.85938 l 5.98047,-71.18164 c 2.0332,-24.19748 -18.45384,-45.63939 -42.71875,-44.70898 z m -18.8418,60.76562 -2.81445,33.49805 -270.462895,-8.3711 0.753906,-14.67578 z" id="path3922" /></svg:g></svg:g></svg:svg>
